Hatter-kde/preferences/32/applications-accessories.svg

<?xml version="1.0" encoding="UTF-8"?>
<svg width="32" height="32" version="1.1" xmlns="http://www.w3.org/2000/svg" xmlns:xlink="http://www.w3.org/1999/xlink">
 <defs>
  <linearGradient id="a-5" x1="7.937" x2="7.937" y1="15.081" y2="1.852" gradientTransform="matrix(1.8897 0 0 1.8897 .001 .015)" gradientUnits="userSpaceOnUse">
   <stop stop-color="#333" offset="0"/>
   <stop stop-color="#424242" offset="1"/>
  </linearGradient>
 </defs>
 <image x=".5" y="1" width="31" height="31" image-rendering="optimizeQuality" preserveAspectRatio="none" xlink:href="data:image/png;base64,iVBORw0KGgoAAAANSUhEUgAAAB8AAAAfCAYAAAAfrhY5AAAACXBIWXMAAA7DAAAOwwHHb6hkAAAA GXRFWHRTb2Z0d2FyZQB3d3cuaW5rc2NhcGUub3Jnm+48GgAAAPdJREFUSMftl7GuwjAMRY9NXlk6 8P9fycBCaWsGbJTmwQIkMORKVqWo6rm+zWCLmVFKRATI61VZlD0ASXkmIjsgAXtgAHZvwBdgAs7A bGbLQ7h3m4DR6++DnV+Ak9ccKaTsxQQcHJzehJaKNBNwdDNoFnXZ8Scl/t0RGJ13g2dxJ+pqw1ER Ub9cNTp+lsBeRFT9YGgAzg0MgARcG8M14DQE5wbuF+4r6vAO7/AO7/CqcGvMtYAbsDY0cOcFfGoM nwBTM1t9rr40MBBj9NnM1vjnc8zUleEbjnLbZZZsqK+RwGZxiM0lFa6O/qy6sfzWrlZzS/VL/U9X YfxzIl867ocAAAAASUVORK5CYII="/>
 <rect x="2" y="2" width="28" height="28" rx="7" ry="7" fill="url(#a-5)"/>
 <path d="m9 2c-3.878 0-7 3.122-7 7v14c0 3.878 3.122 7 7 7h14c3.878 0 7-3.122 7-7v-14c0-3.878-3.122-7-7-7zm0 0.5h14c3.601 0 6.5 2.899 6.5 6.5v14c0 3.601-2.899 6.5-6.5 6.5h-14a6.486 6.486 0 0 1-6.5-6.5v-14c0-3.601 2.899-6.5 6.5-6.5z" fill="#fff" opacity=".06"/>
 <path d="m6 6.1429v17.286c0 1.5714 1.5714 1.5714 1.5714 1.5714h20.429zm3.9286 8.5416 7.4505 6.387h-7.4505z" fill="#fff" opacity=".35" stroke-width=".39286"/>
 <path d="m15.472 13.607c0.41247 0.01493 0.78704 0.24462 0.98752 0.60539l5.8929 10.607 0.14732 2.9303-2.2098-1.784-4.8616-8.7518v-3.6025c0.01493 0 0.02876-0.0047 0.04376-0.0047z" fill="#e6e6e6" fill-rule="evenodd" stroke-width=".39286"/>
 <path d="m15.385 13.607c-0.41247 0.01493-0.78704 0.24462-0.98752 0.6054l-5.8929 10.607-0.14732 2.9303 2.2098-1.784 0.82868-1.4893a9.4286 9.4286 0 0 0 4.0329 0.91615 9.4286 9.4286 0 0 0 9.4286-9.4286h-2.3571a7.0714 7.0714 0 0 1-7.0714 7.0714 7.0714 7.0714 0 0 1-2.8843-0.62841l2.8843-5.1931v-3.6025c-0.01493 0-0.02876-0.0047-0.04376-0.0047z" fill="#fff" stroke-width=".39286"/>
 <path d="m13.857 8.8928v2.3571h-0.78572c-1.5714 0-1.5714 1.5714-1.5714 1.5714v3.9286s1.9643 1.9643 2.75 2.75c0.70651 0.54994 1.8796 0.59407 2.4868-0.1296l2.6204-2.6204v-3.9286s0-1.5714-1.5714-1.5714h-0.78571v-2.3571z" fill="#ccc" stroke-width=".39286"/>
 <circle cx="15.429" cy="14.393" r="1.5714" fill="#fff" stroke-width=".39286"/>
</svg>

<svg xmlns="http://www.w3.org/2000/svg" xmlns:xlink="http://www.w3.org/1999/xlink" width="32" height="32"><defs><linearGradient id="a" x1="7.937" x2="7.937" y1="15.081" y2="1.852" gradientTransform="translate(.001 .015)scale(1.8897)" gradientUnits="userSpaceOnUse"><stop offset="0" stop-color="#333"/><stop offset="1" stop-color="#424242"/></linearGradient></defs><image xlink:href="data:image/png;base64,iVBORw0KGgoAAAANSUhEUgAAAB8AAAAfCAYAAAAfrhY5AAAACXBIWXMAAA7DAAAOwwHHb6hkAAAA GXRFWHRTb2Z0d2FyZQB3d3cuaW5rc2NhcGUub3Jnm+48GgAAAPdJREFUSMftl7GuwjAMRY9NXlk6 8P9fycBCaWsGbJTmwQIkMORKVqWo6rm+zWCLmVFKRATI61VZlD0ASXkmIjsgAXtgAHZvwBdgAs7A bGbLQ7h3m4DR6++DnV+Ak9ccKaTsxQQcHJzehJaKNBNwdDNoFnXZ8Scl/t0RGJ13g2dxJ+pqw1ER Ub9cNTp+lsBeRFT9YGgAzg0MgARcG8M14DQE5wbuF+4r6vAO7/AO7/CqcGvMtYAbsDY0cOcFfGoM nwBTM1t9rr40MBBj9NnM1vjnc8zUleEbjnLbZZZsqK+RwGZxiM0lFa6O/qy6sfzWrlZzS/VL/U9X YfxzIl867ocAAAAASUVORK5CYII=" width="31" height="31" x=".5" y="1" image-rendering="optimizeQuality" preserveAspectRatio="none"/><rect width="28" height="28" x="2" y="2" fill="url(#a)" rx="7" ry="7"/><path fill="#fff" d="M9 2C5.122 2 2 5.122 2 9v14c0 3.878 3.122 7 7 7h14c3.878 0 7-3.122 7-7V9c0-3.878-3.122-7-7-7zm0 .5h14c3.601 0 6.5 2.899 6.5 6.5v14c0 3.601-2.899 6.5-6.5 6.5H9A6.486 6.486 0 0 1 2.5 23V9c0-3.601 2.899-6.5 6.5-6.5" opacity=".06"/><path fill="#fff" d="M6 6.143v17.286C6 25 7.571 25 7.571 25h20.43zm3.929 8.542 7.45 6.386H9.93z" opacity=".35"/><path fill="#e6e6e6" fill-rule="evenodd" d="M15.472 13.607c.412.015.787.245.988.605l5.892 10.607.148 2.93-2.21-1.783-4.862-8.752V13.61c.015 0 .03-.004.044-.004z"/><path fill="#fff" d="M15.385 13.607a1.18 1.18 0 0 0-.988.605L8.505 24.82l-.148 2.93 2.21-1.783.829-1.49a9.4 9.4 0 0 0 4.033.917 9.43 9.43 0 0 0 9.428-9.43H22.5a7.07 7.07 0 0 1-7.071 7.072 7.1 7.1 0 0 1-2.885-.628l2.885-5.193V13.61q-.022-.002-.044-.004z"/><path fill="#ccc" d="M13.857 8.893v2.357h-.786c-1.571 0-1.571 1.571-1.571 1.571v3.929l2.75 2.75c.706.55 1.88.594 2.487-.13l2.62-2.62V12.82s0-1.571-1.571-1.571H17V8.893z"/><circle cx="15.429" cy="14.393" r="1.571" fill="#fff"/></svg>
